svgs/deepl.svg

<svg width="24" height="24" viewBox="0 0 24 24" fill="none" xmlns="http://www.w3.org/2000/svg">
<path fill-rule="evenodd" clip-rule="evenodd" d="M4 7.11596V15.0563C4 15.4688 4.21789 15.8469 4.57341 16.0531L11.4543 20.0176C11.4707 20.0271 11.4874 20.0362 11.5041 20.0449L14.8947 22L14.8832 20.2813L14.8905 19.2728C14.8931 18.918 15.0834 18.5912 15.3907 18.4139L19.4819 16.0531C19.8375 15.8469 20.0553 15.4688 20.0553 15.0563V7.11596C20.0553 6.70346 19.8375 6.32535 19.4819 6.11913L12.6011 2.15468C12.2456 1.94844 11.8098 1.94844 11.4543 2.15468L4.57341 6.13059C4.21789 6.33681 4 6.71492 4 7.11596ZM10.9034 7.47144C10.4447 7.02459 9.7107 7.02459 9.25197 7.47144C8.75885 7.94122 8.75885 8.72036 9.25197 9.19014C9.7107 9.63699 10.4447 9.63699 10.9034 9.19014C10.9192 9.17506 10.9345 9.15966 10.9493 9.14396L14.0917 10.9545L14.1031 10.9481C13.9633 11.3687 14.0665 11.8508 14.4126 12.1805C14.8713 12.6274 15.6053 12.6274 16.064 12.1805C16.5572 11.7108 16.5572 10.9316 16.064 10.4619C15.6053 10.015 14.8713 10.015 14.4126 10.4619L14.4057 10.4685L14.3962 10.4778L11.2312 8.6437C11.3424 8.23794 11.2331 7.78554 10.9034 7.47144ZM9.25197 13.6244C9.7107 13.1775 10.4447 13.1775 10.9034 13.6244C10.9243 13.6443 10.9443 13.6648 10.9635 13.6857L13.7477 12.0888L14.3211 12.4096L11.2363 14.1903C11.3388 14.591 11.2278 15.034 10.9034 15.3431C10.4447 15.7899 9.7107 15.7899 9.25197 15.3431C8.75885 14.8733 8.75885 14.0941 9.25197 13.6244Z" fill="#FFF1C0"/>
</svg>

<svg xmlns="http://www.w3.org/2000/svg" viewBox="0 0 24 24"><path fill-rule="evenodd" d="M4 7.116v7.94c0 .413.218.79.573.997l6.881 3.965.05.027L14.894 22l-.01-1.719.006-1.008a1 1 0 0 1 .5-.86l4.092-2.36a1.15 1.15 0 0 0 .573-.997v-7.94c0-.413-.218-.79-.573-.997l-6.88-3.964a1.14 1.14 0 0 0-1.148 0L4.574 6.13A1.145 1.145 0 0 0 4 7.116m6.903.355a1.185 1.185 0 0 0-1.651 0 1.183 1.183 0 0 0 0 1.72 1.185 1.185 0 0 0 1.697-.047l3.143 1.81.011-.006c-.14.42-.037.903.31 1.233a1.185 1.185 0 0 0 1.651 0 1.183 1.183 0 0 0 0-1.72 1.185 1.185 0 0 0-1.651 0l-.007.008-.01.009-3.165-1.834a1.183 1.183 0 0 0-.328-1.173m-1.651 6.153a1.185 1.185 0 0 1 1.711.062l2.785-1.597.573.32-3.085 1.781a1.18 1.18 0 0 1-.333 1.153 1.185 1.185 0 0 1-1.651 0 1.183 1.183 0 0 1 0-1.719"/></svg>
